svgs/sharp-solid/pipe-section.svg

<svg xmlns="http://www.w3.org/2000/svg" viewBox="0 0 640 512"><!--! Font Awesome Pro 6.6.0 by @fontawesome - https://fontawesome.com License - https://fontawesome.com/license (Commercial License) Copyright 2024 Fonticons, Inc. --><path d="M64 96L0 96l0 32L0 384l0 32 64 0 0-32 0-256 0-32zm576 0l-64 0 0 32 0 256 0 32 64 0 0-32 0-256 0-32zm-96 32L96 128l0 256 448 0 0-256z"/></svg>

<svg xmlns="http://www.w3.org/2000/svg" viewBox="0 0 640 512"><!--! Font Awesome Pro 6.4.0 by @fontawesome - https://fontawesome.com License - https://fontawesome.com/license (Commercial License) Copyright 2023 Fonticons, Inc. --><path d="M64 96H0v32V384v32H64V384 128 96zm576 0H576v32V384v32h64V384 128 96zm-96 32H96V384H544V128z"/></svg>
